X: 70
T: Pollonesse #70
M: 3/4
L: 1/16
K: C
Q:120
c2e2 g4 f4|e2ce d2Bd c4|c2f2 a2g2 f2e2|d2c2 B2AB G4|
e2eg f2fa g4|e2eg f2fa g4|a2g2 f2e2 d2c2|BcdB c4 C4:|
G,4 f4 e4|d2c2 B2AB c4|c2d2 BcdB c4|c2d2 BcdB c4|
a2F2 F2a2 a2gf|g2E2 E2g2 g2fe|f2D2 D2f2 g2f2|edcB c4C4:|
N: Nedtäcknad men två förecken (D), misstänkt hopblandning av tonart med nr. 69